X: 1
T: String Quartet in B\b Major opus 33 no 4 mvt 2
C: Franz Joseph Haydn
%%abc-version 2.0
%%abcx-abcm2ps-target-version 5.9.1 (29 Sep 2008)
%%abc-creator hum2abc beta
%%abcx-conversion-date 2021/02/14 14:38:12
%%abc-copyright Copyright (c) 1994, 2000 Center for Computer Assisted Research in the Humanities
%%abc-edited-by Frances Bennion
%%abcx-initial-encoding-date 1997/04/15
%%gracespace 0 6 6
%%humdrum-veritas 845965848
%%humdrum-veritas-data 2152825003
%%linebreak <none>
%%barnumbers 0
L: 1/4
M: 3/4
N: Derived from op33n4-02.krn
Q: "Scherzo: Allegretto"
%%staves [1 2 3 4]
V: 1
V: 2
V: 3 clef=alto
V: 4 clef=bass
K: Bb
[V:1]d >>f e3//g// [I:setbarnb2] |
[V:2]D >>F E3//G// |
[V:3]B,2 C |
[V:4]B,, B, C |
[V:1]f d B |
[V:2]F D B, |
[V:3]D z2 |
[V:4]D z2 |
[V:1]c >>e d3//f// |
[V:2]C >>E D3//F// |
[V:3]A,2 B, |
[V:4]F,, A, B, |
[V:1]e c A |
[V:2]E C A, |
[V:3]C z2 |
[V:4]C z2 |
[V:1]B3- |
[V:2]B,3- |
[V:3]D F/>_A/ G3//B// |
[V:4]D,, D,/>F,/ E,3//G,// |
[V:1]B2 =B |
[V:2]B,2 F |
[V:3]_A F D |
[V:4]F, D, G, |
[V:1]c e/>c/ A3//c// |
[V:2]E z E |
[V:3]E z C |
[V:4]C, z F, |
[V:1]B z2 |
[V:2]D z2 |
[V:3]D z2 |
[V:4]B,, F, B, |
[V:1]f >>a =e3//g// |
[V:2]z A B |
[V:3]z F G |
[V:4]z3 |
[V:1]f c =e |
[V:2]c2 B |
[V:3]A2 G |
[V:4]z3 |
[V:1]f >>a =e3//g// |
[V:2]A A B |
[V:3]F F G |
[V:4]z3 |
[V:1]f c d |
[V:2]c z2 |
[V:3]A z2 |
[V:4]z3 |
[V:1]e >>f d3//e// |
[V:2]E >>F D3//E// |
[V:3]z B, A, |
[V:4]z G, F, |
[V:1]c >>d B3//c// |
[V:2]C >>D B,3//C// |
[V:3]z G, F, |
[V:4]z E, D, |
[V:1]A B d |
[V:2]A, B, B |
[V:3]E, D, B, |
[V:4]C, B,, =E,, |
[V:1]c2 ^c |
[V:2]A2 z |
[V:3]F, z2 |
[V:4]F,,2 z |
[V:1]d >>f e3//g// |
[V:2]D >>F E3//G// |
[V:3]F3- |
[V:4]B,, B, C |
[V:1]f d B |
[V:2]F D B, |
[V:3]F3- |
[V:4]D z2 |
[V:1]c >>e d3//f// |
[V:2]C >>E D3//F// |
[V:3]F3- |
[V:4]F,, A, B, |
[V:1]e c A |
[V:2]E C A, |
[V:3]F3 |
[V:4]C z2 |
[V:1]B3- |
[V:2]B,3- |
[V:3]D F/>_A/ G3//B// |
[V:4]D,, D,/>F,/ E,3//G,// |
[V:1]B2 =B |
[V:2]B,2 F |
[V:3]_A F D |
[V:4]F, D, G, |
[V:1]c e/>c/ A3//c// |
[V:2]E z E |
[V:3]E z C |
[V:4]C, z F, |
[V:1]B z2 |
[V:2]D z2 |
[V:3]D z2 |
[V:4]B, F, B,, |
[V:1]f2 _g/z/ |
[V:2]z _D C/z/ |
[V:3]z B, A,/z/ |
[V:4]z3 |
[V:1]f2 e/z/ |
[V:2]z _D E/z/ |
[V:3]z B, C/z/ |
[V:4]z3 |
[V:1]_d2 c/z/ |
[V:2]z F _G/z/ |
[V:3]z _D E/z/ |
[V:4]z3 |
[V:1]B2 A/z/ |
[V:2]z G F/z/ |
[V:3]z =E F/z/ |
[V:4]z3 |
[V:1]z c _d/z/ |
[V:2]z3 |
[V:3]_G2 F/z/ |
[V:4]E2 _D/z/ |
[V:1]z _g f/z/ |
[V:2]z e _d/z/ |
[V:3]C2 _D/z/ |
[V:4]_A,2 B,/z/ |
[V:1]z e c |
[V:2]z B _G |
[V:3]B,2 _A, |
[V:4]_G,2 _A, |
[V:1]_d z2 |
[V:2]F z2 |
[V:3]_D z2 |
[V:4]_D, _A,, _D,, |
[V:1]_a2 b/z/ |
[V:2]f2 _g/z/ |
[V:3]z3 |
[V:4]z _D C/z/ |
[V:1]_a2 _g/z/ |
[V:2]f2 e/z/ |
[V:3]z3 |
[V:4]z _D _A,/z/ |
[V:1]f2 _g/z/ |
[V:2]_d2 e/z/ |
[V:3]z3 |
[V:4]z B, A,/z/ |
[V:1]f2 e/z/ |
[V:2]_d2 c/z/ |
[V:3]z3 |
[V:4]z B, F,/z/ |
[V:1]z _d =d/z/ |
[V:2]z3 |
[V:3]B,2 _A,/z/ |
[V:4]_G,2 F,/z/ |
[V:1]z e f/z/ |
[V:2]z3 |
[V:3]_G,2 F,/z/ |
[V:4]E,2 D,/z/ |
[V:1]_g2 f/z/ |
[V:2]A2 B/z/ |
[V:3]z E _D/z/ |
[V:4]z C _D/z/ |
[V:1]e2 _d/z/ |
[V:2]c2 B/z/ |
[V:3]z _G F/z/ |
[V:4]z A, B,/z/ |
[V:1]c B A |
[V:2]_G F E |
[V:3]E _D C |
[V:4]E, F, F, |
[V:1]B z2 |]
[V:2]_D z2 |]
[V:3]B, z2 |]
[V:4]B, F, B,, |]

